packages/ffe-icons/icons/open/400/sm/bathroom.svg

<svg xmlns="http://www.w3.org/2000/svg" height="20" viewBox="0 -960 960 960" width="20"><path d="M371.79-240q15.21 0 25.71-10.29t10.5-25.5q0-15.21-10.29-25.71t-25.5-10.5q-15.21 0-25.71 10.29t-10.5 25.5q0 15.21 10.29 25.71t25.5 10.5Zm108 0q15.21 0 25.71-10.29t10.5-25.5q0-15.21-10.29-25.71t-25.5-10.5q-15.21 0-25.71 10.29t-10.5 25.5q0 15.21 10.29 25.71t25.5 10.5Zm108 0q15.21 0 25.71-10.29t10.5-25.5q0-15.21-10.29-25.71t-25.5-10.5q-15.21 0-25.71 10.29t-10.5 25.5q0 15.21 10.29 25.71t25.5 10.5Zm-216-120q15.21 0 25.71-10.29t10.5-25.5q0-15.21-10.29-25.71t-25.5-10.5q-15.21 0-25.71 10.29t-10.5 25.5q0 15.21 10.29 25.71t25.5 10.5Zm108 0q15.21 0 25.71-10.29t10.5-25.5q0-15.21-10.29-25.71t-25.5-10.5q-15.21 0-25.71 10.29t-10.5 25.5q0 15.21 10.29 25.71t25.5 10.5Zm108 0q15.21 0 25.71-10.29t10.5-25.5q0-15.21-10.29-25.71t-25.5-10.5q-15.21 0-25.71 10.29t-10.5 25.5q0 15.21 10.29 25.71t25.5 10.5ZM479.77-720Q400-720 344-663.84 288-607.68 288-528q0 20.4 13.8 34.2Q315.6-480 336-480h288q20.4 0 34.2-13.8Q672-507.6 672-528q0-79.68-56.23-135.84-56.22-56.16-136-56.16Zm.23 72q44 0 77 27t41 69H362q8-42 41-69t77-27ZM168-96q-29.7 0-50.85-21.15Q96-138.3 96-168v-624q0-29.7 21.15-50.85Q138.3-864 168-864h624q29.7 0 50.85 21.15Q864-821.7 864-792v624q0 29.7-21.15 50.85Q821.7-96 792-96H168Zm0-72h624v-624H168v624Zm0 0v-624 624Z"/></svg>

<svg xmlns="http://www.w3.org/2000/svg" height="20" viewBox="0 -960 960 960" width="20"><path d="M371.789-240Q387-240 397.5-250.289q10.5-10.29 10.5-25.5Q408-291 397.711-301.5q-10.29-10.5-25.5-10.5Q357-312 346.5-301.711q-10.5 10.29-10.5 25.5Q336-261 346.289-250.5q10.29 10.5 25.5 10.5Zm108 0Q495-240 505.5-250.289q10.5-10.29 10.5-25.5Q516-291 505.711-301.5q-10.29-10.5-25.5-10.5Q465-312 454.5-301.711q-10.5 10.29-10.5 25.5Q444-261 454.289-250.5q10.29 10.5 25.5 10.5Zm108 0Q603-240 613.5-250.289q10.5-10.29 10.5-25.5Q624-291 613.711-301.5q-10.29-10.5-25.5-10.5Q573-312 562.5-301.711q-10.5 10.29-10.5 25.5Q552-261 562.289-250.5q10.29 10.5 25.5 10.5Zm-216-120Q387-360 397.5-370.289q10.5-10.29 10.5-25.5Q408-411 397.711-421.5q-10.29-10.5-25.5-10.5Q357-432 346.5-421.711q-10.5 10.29-10.5 25.5Q336-381 346.289-370.5q10.29 10.5 25.5 10.5Zm108 0Q495-360 505.5-370.289q10.5-10.29 10.5-25.5Q516-411 505.711-421.5q-10.29-10.5-25.5-10.5Q465-432 454.5-421.711q-10.5 10.29-10.5 25.5Q444-381 454.289-370.5q10.29 10.5 25.5 10.5Zm108 0Q603-360 613.5-370.289q10.5-10.29 10.5-25.5Q624-411 613.711-421.5q-10.29-10.5-25.5-10.5Q573-432 562.5-421.711q-10.5 10.29-10.5 25.5Q552-381 562.289-370.5q10.29 10.5 25.5 10.5ZM479.774-720Q400-720 344-663.84T288-528q0 20.4 13.8 34.2Q315.6-480 336-480h288q20.4 0 34.2-13.8Q672-507.6 672-528q0-79.68-56.226-135.84t-136-56.16Zm.226 72q44 0 77 27t41 69H362q8-42 41-69t77-27ZM168-96q-29.7 0-50.85-21.15Q96-138.3 96-168v-624q0-29.7 21.15-50.85Q138.3-864 168-864h624q29.7 0 50.85 21.15Q864-821.7 864-792v624q0 29.7-21.15 50.85Q821.7-96 792-96H168Zm0-72h624v-624H168v624Zm0 0v-624 624Z"/></svg>
